X:202
T:J'aloie l'autrier errant
C:Thibaut de Champagne
R:Pastourelle
M:6/8
L:1/8
Q:1/4=94
K:C 
V:1
cde cde | ff2 ee2 | d/2c/2de2<d2 | ccB AAB | 
cd2 c2e | gag f/2e/2f/2e/2d | dc3z2z | \
cde cde | 
ff2 ee2 | d/2c/2de2<d2 | ccB AAB | cd2 c2e | 
gag f/2e/2f/2e/2d | dc3z2z | fed e/2d/2c/2B/2A | Bcd2<c2 | 
ee/2f/2g ag/2f/2e | dc/2B/2A Bc2 | dd/2c/2B cc/2B/2A | BcB d/2c/2B2 | 
cde f/2e/2d/2c/2d | d/2c/2B2 c3 |]





